**kern	**silbe	**kern	**silbe
*ICvox	*	*ICvox	*
=1	=1	=1	=1
*E:	*	*E:	*
*M4/4	*	*M4/4	*
*clefC3	*	*clefG2	*
1r	.	1r	.
=2	=2	=2	=2
1r	.	1r	.
=3	=3	=3	=3
1r	.	1r	.
=4	=4	=4	=4
1r	.	1r	.
=5	=5	=5	=5
1r	.	1r	.
=6	=6	=6	=6
1r	.	1r	.
=7	=7	=7	=7
1r	.	1r	.
=8	=8	=8	=8
2r	.	1r	.
4r	.	.	.
8r	.	.	.
8B	Babe,	.	.
=9	=9	=9	=9
8c#	don't	1r	.
8G#	be	.	.
8c#	shy	.	.
16B	when	.	.
16G#	you're	.	.
16c#	hol-	.	.
16B	-ding	.	.
16G#	my	.	.
[16B	hand	.	.
8B]	,	.	.
16B	cuz	.	.
16G#	as	.	.
=10	=10	=10	=10
8B	time	1r	.
8G#	goes	.	.
8B	by,	.	.
16G#	you	.	.
16c#	got	.	.
16r	.	.	.
16G#	to	.	.
16B	un-	.	.
16B	-der-	.	.
8F#	-stand,	.	.
8B	it's	.	.
=11	=11	=11	=11
8E	you	2r	.
8r	!	.	.
4r	.	.	.
2r	.	8r	.
.	.	16e	I-
.	.	16e	-i-
.	.	8e	-it's
.	.	8f#	with
=12	=12	=12	=12
2r	.	4e	you
.	.	4r	!
4r	.	2r	.
16r	.	.	.
16e	Ba-	.	.
16e	-ba-	.	.
16e	-ba-	.	.
=13	=13	=13	=13
16f#	-ba-	1r	.
16B	-by	.	.
16e	in	.	.
16c#	your	.	.
8e	eyes,	.	.
8c#	I	.	.
16e	see	.	.
16c#	it	.	.
8e	so	.	.
16e	clear-	.	.
16c#	-ly,	.	.
16e	that	.	.
16c#	our	.	.
=14	=14	=14	=14
16f#	love	1r	.
16e	is	.	.
8c#	so	.	.
8e	strong,	.	.
16e	and	.	.
16c#	you	.	.
16e	ne-	.	.
16c#	-ver	.	.
16B	go	.	.
[16d#	wrong	.	.
8d#]	_	.	.
8r	!	.	.
=15	=15	=15	=15
*	*	*clefF4	*
2r	.	4r	.
.	.	8r	.
.	.	16C#	Ed-
.	.	16D#	-die!
16r	.	2r	.
16c#	I	.	.
16c#	got	.	.
16e	the	.	.
8f#	best	.	.
8e	for	.	.
=16	=16	=16	=16
4e	you	1r	.
4r	!	.	.
4r	.	.	.
8r	.	.	.
8e	So	.	.
=17	=17	=17	=17
16e	when	1r	.
16c#	you're	.	.
8F#	in	.	.
8c#	doubt,	.	.
16e	and	.	.
16e	n-	.	.
16f#	-nee-	.	.
16e	-ding	.	.
8c#	some-	.	.
8c#	-one,	.	.
16e	ba-	.	.
16e	-by	.	.
=18	=18	=18	=18
8f#	call	1r	.
16c#	my	.	.
[16c#	line	.	.
8c#]	,	.	.
16e	call	.	.
16e	me	.	.
16f#	a-	.	.
8e	-ny-	.	.
[16c#	-time	.	.
4c#]	_	.	.
=19	=19	=19	=19
2r	!	4r	.
.	.	8r	.
.	.	16C#	Ed-
.	.	16D#	-die
8r	.	2r	!
16c#	I'll	.	.
16e	be	.	.
8f#	there	.	.
8e	for	.	.
=20	=20	=20	=20
4f#	you!	1r	.
4f#	(you,	.	.
4f#	you,	.	.
4f#	you)	.	.
=21	=21	=21	=21
4r	.	1r	.
16r	.	.	.
16B	I've	.	.
8d#	been	.	.
8f#	sear-	.	.
4B	-ching	.	.
[8c#	high	.	.
=22	=22	=22	=22
8c#]	!	1r	.
4e	(high,	.	.
8g#	high)	.	.
2r	.	.	.
=23	=23	=23	=23
4r	.	1r	.
8r	.	.	.
16B	I've	.	.
16d#	been	.	.
8f#	sear-	.	.
4B	-ching	.	.
[8A	low	.	.
=24	=24	=24	=24
8A]	!	1r	.
4F#	(low,	.	.
8E	low)	.	.
2r	.	.	.
=25	=25	=25	=25
8r	.	1r	.
8d	Ba-	.	.
16d	-ba-	.	.
16d	-ba-	.	.
8d	-ba	.	.
8r	,	.	.
8d	ba-	.	.
16d	-ba-	.	.
16d	-ba-	.	.
8d	-ba,	.	.
=26	=26	=26	=26
dq	_	1r	.
8e	Ba-	.	.
8e	-by!	.	.
dq	_	.	.
8e	(Ba-	.	.
8e	-by,	.	.
dq	_	.	.
8e	ba-	.	.
8e	-by,	.	.
dq	_	.	.
8e	ba-	.	.
8e	-by)	.	.
=27	=27	=27	=27
4r	.	1r	.
8d	Don't	.	.
8d	for-	.	.
8d	-get	.	.
8r	.	.	.
4d	my	.	.
=28	=28	=28	=28
dq	_	1r	.
8e	num-	.	.
8e	-ber!	.	.
dq	_	.	.
8e	(Num-	.	.
8e	-ber,	.	.
dq	_	.	.
8e	num-	.	.
8e	-ber,	.	.
dq	_	.	.
8e	num-	.	.
8e	-ber)	.	.
=29	=29	=29	=29
*	*	*clefG2	*
1r	.	8r	.
.	.	8d dd	Ba-
.	.	16d dd	-ba-
.	.	16d dd	-ba-
.	.	8d dd	-ba
.	.	8r	,
.	.	8d dd	ba-
.	.	16d dd	-ba-
.	.	16d dd	-ba-
.	.	8d dd	-ba!
=30	=30	=30	=30
dq	_	1r	.
8e	Ba-	.	.
8e	-by!	.	.
dq	_	.	.
8e	(Ba-	.	.
8e	-by,	.	.
dq	_	.	.
8e	ba-	.	.
8e	-by,	.	.
dq	_	.	.
8e	ba-	.	.
8e	-by)	.	.
=31	=31	=31	=31
4r	.	4r	.
8d	Love	8f#	Love
8B	is	8d	is
8d	stron-	8f#	stron-
8B	-ger	8d	-ger
4d	than	4f#	than
=32	=32	=32	=32
dq	_	f#q	_
8e	thun-	8g#	thun-
8e	-der!	8g#	-der
dq	_	4r	!
8e	(Thun-	.	.
8e	-der,	.	.
dq	_	2r	.
8e	thun-	.	.
8e	-der,	.	.
dq	_	.	.
8e	thun-	.	.
8e	-der)	.	.
=33	=33	=33	=33
1r	.	8r	.
.	.	8d dd	Ba-
.	.	16d dd	-ba-
.	.	16d dd	-ba-
.	.	8d dd	-ba
.	.	8r	,
.	.	8d dd	ba-
.	.	16d dd	-ba-
.	.	16d dd	-ba-
.	.	8d dd	-ba!
=34	=34	=34	=34
dq	_	f#q	_
8e	Ba-	8g#	Ba-
8e	-by!	8g#	-by
dq	_	4r	!
8e	(Ba-	.	.
8e	-by,	.	.
dq	_	2r	.
8e	ba-	.	.
8e	-by,	.	.
dq	_	.	.
8e	ba-	.	.
8e	-by)	.	.
=35	=35	=35	=35
4r	.	1r	.
8d	Don't	.	.
8B	for-	.	.
8d	-get	.	.
8r	.	.	.
eq	_	.	.
4f#	my	.	.
=36	=36	=36	=36
dq	_	8g#	Num-
8e	num-	.	.
8e	-ber!	8g#	-ber
dq	_	4r	!
8e	(Num-	.	.
8e	-ber,	.	.
dq	_	2r	.
8e	num-	.	.
8e	-ber,	.	.
dq	_	.	.
8e	num-	.	.
8e	-ber)	.	.
=37	=37	=37	=37
4r	.	4r	.
8d	Love	8f#	Love
8B	will	8d	will
4d	see	4f#	see
eq	_	g#q	_
4f#	you	4a	you
=38	=38	=38	=38
4.e	through	4.g#	through
8r	!	8r	!
2r	.	2r	.
=39	=39	=39	=39
*	*	*clefF4	*
g#q	_	G#q	_
r	.	r	.
4g#	I've	4G#	I've
8r	.	8r	.
8e	been	8E	been
8f#	sear-	8F#	sear-
4f#	-ching	4F#	-ching
[8e	high	[8E	high
=40	=40	=40	=40
8e]	_	8E]	_
8r	.	8r	.
4r	.	4r	.
2r	.	2r	.
=41	=41	=41	=41
g#q	_	G#q	_
r	.	r	.
4g#	I've	4G#	I've
8r	.	8r	.
8e	been	8E	been
8f#	sear-	8F#	sear-
4f#	-ching	4F#	-ching
[8e	low	[8E	low
=42	=42	=42	=42
8e]	_	8E]	_
8r	.	8r	.
4r	.	4r	.
2r	.	2r	.
=43	=43	=43	=43
4r	.	1r	.
8r	.	.	.
16d	Wan-	.	.
16c#	-na	.	.
8d	spend	.	.
8d	my	.	.
8e	_	.	.
[8e	life	.	.
=44	=44	=44	=44
4e]	_	2r	.
4r	,	.	.
4r	.	4r	.
8f#	with	8F#	With
[8e [b	you	8E	you!
=45	=45	=45	=45
1e] b]	_	1r	.
=46	=46	=46	=46
4r	!	4r	!
8r	.	8r	.
16B	Ba-	16BB	Ba-
16B	-ba-	16BB	-ba-
8B	-ba-	8BB	-ba-
4e	-ba-	4E	-ba-
16f#	-ba	16F#	-ba
[16g#	_	[16G#	_
=47	=47	=47	=47
8g#]	!	8G#]	!
4r	.	4r	.
16g#	Ba-	16G#	Ba-
16g#	-ba-	16G#	-ba-
8f#	-ba-	8F#	-ba-
4g#	-ba-	4G#	-ba-
[8f#	-ba	[8F#	-ba
=48	=48	=48	=48
8f#]	_	8F#]	_
4e	ba,	4E	ba,
16B	ba-	16BB	ba-
16B	-ba-	16BB	-ba-
8B	-ba-	8BB	-ba-
4e	-ba-	4E	-ba-
16f#	-ba	16F#	-ba
[16g#	_	[16G#	_
=49	=49	=49	=49
8g#]	_	8G#]	_
4r	!	4r	!
16g#	Ba-	16G#	Ba-
16g#	-ba-	16G#	-ba-
8f#	-ba-	8F#	-ba-
4g#	-ba-	4G#	-ba-
[8e	-ba	[8E	-ba
=50	=50	=50	=50
4e]	_	4E]	_
8r	!	8r	!
16B	Ba-	16BB	Ba-
16B	-ba-	16BB	-ba-
8B	-ba-	8BB	-ba-
4e	-ba-	4E	-ba-
16f#	-ba	16F#	-ba
[16g#	_	[16G#	_
=51	=51	=51	=51
8g#]	_	8G#]	_
4r	!	4r	!
16g#	Ba-	16G#	Ba-
16g#	-ba-	16G#	-ba-
8f#	-ba-	8F#	-ba-
4g#	-ba-	4G#	-ba-
[8f#	-ba	[8F#	-ba
=52	=52	=52	=52
8f#]	_	8F#]	_
4e	ba,	4E	ba,
16B	ba-	16BB	ba-
16B	-ba-	16BB	-ba-
8B	-ba-	8BB	-ba-
4e	-ba-	4E	-ba-
16f#	-ba	16F#	-ba
[16g#	_	16G#	_
=53	=53	=53	=53
8g#]	_	1r	.
8r	!	.	.
8g#	Love	.	.
8g#	will	.	.
8f#	see	.	.
4g#	you	.	.
[8e	through	.	.
=54	=54	=54	=54
4.e]	_	1r	.
8r	!	.	.
4r	.	.	.
16r	.	.	.
16f#	Ba-	.	.
16f#	-ba-	.	.
16f#	-ba	.	.
=55	=55	=55	=55
16f#	ba-	1r	.
16e	-by	.	.
16c#	in	.	.
16B	your	.	.
8d#	eyes,	.	.
8B	I	.	.
16d#	see	.	.
16B	it	.	.
8d#	so	.	.
16d#	clear-	.	.
16B	-ly,	.	.
16c#	that	.	.
16B	our	.	.
=56	=56	=56	=56
16e	love	1r	.
16c#	is	.	.
8B	so	.	.
8f#	strong,	.	.
16e	and	.	.
16c#	you	.	.
16e	ne-	.	.
16c#	-ver	.	.
8B	go	.	.
4d#	_	.	.
=57	=57	=57	=57
2r	.	4r	.
.	.	8r	.
.	.	16C#	Ed-
.	.	16D#	-die!
16r	.	2r	.
16c#	I	.	.
16c#	got	.	.
16e	the	.	.
8f#	best	.	.
8e	for	.	.
=58	=58	=58	=58
4e	you	1r	.
4r	!	.	.
4r	.	.	.
8r	.	.	.
8e	So	.	.
=59	=59	=59	=59
16e	when	1r	.
16c#	you're	.	.
8F#	in	.	.
8c#	doubt,	.	.
16e	and	.	.
16e	n-	.	.
16f#	-nee-	.	.
16e	-ding	.	.
8c#	some-	.	.
8c#	-one,	.	.
16e	ba-	.	.
16e	-by	.	.
=60	=60	=60	=60
8f#	call	1r	.
16c#	my	.	.
[16c#	line	.	.
8c#]	,	.	.
16e	call	.	.
16e	me	.	.
16f#	a-	.	.
8e	-ny-	.	.
[16c#	-time	.	.
4c#]	_	.	.
=61	=61	=61	=61
2r	!	4r	.
.	.	8r	.
.	.	16C#	Ed-
.	.	16D#	-die
8r	.	2r	!
16c#	I'll	.	.
16e	be	.	.
8f#	there	.	.
8e	for	.	.
=62	=62	=62	=62
4f#	you!	1r	.
4f#	(you,	.	.
4f#	you,	.	.
4f#	you)	.	.
=63	=63	=63	=63
4r	.	1r	.
16r	.	.	.
16B	I've	.	.
8d#	been	.	.
8f#	sear-	.	.
4B	-ching	.	.
[8c#	high	.	.
=64	=64	=64	=64
8c#]	_	1r	.
8r	!	.	.
4r	.	.	.
2r	.	.	.
=65	=65	=65	=65
4r	.	1r	.
8r	.	.	.
16B	I've	.	.
16d#	been	.	.
8f#	sear-	.	.
4B	-ching	.	.
[8A	low	.	.
=66	=66	=66	=66
8A]	!	1r	.
8d	Ba-	.	.
16d	-ba-	.	.
16d	-ba-	.	.
8d	-ba,	.	.
8r	.	.	.
8d	ba-	.	.
16d	-ba-	.	.
16d	-ba-	.	.
8d	-ba,	.	.
=67	=67	=67	=67
dq	_	1r	.
8e	Ba-	.	.
8e	-by!	.	.
dq	_	.	.
8e	(Ba-	.	.
8e	-by,	.	.
dq	_	.	.
8e	ba-	.	.
8e	-by,	.	.
dq	_	.	.
8e	ba-	.	.
8e	-by)	.	.
=68	=68	=68	=68
4r	.	1r	.
8d	Don't	.	.
8d	for-	.	.
8d	-get	.	.
8r	.	.	.
4d	my	.	.
=69	=69	=69	=69
dq	_	1r	.
8e	num-	.	.
8e	-ber!	.	.
dq	_	.	.
8e	(Num-	.	.
8e	-ber,	.	.
dq	_	.	.
8e	num-	.	.
8e	-ber,	.	.
dq	_	.	.
8e	num-	.	.
8e	-ber)	.	.
=70	=70	=70	=70
*	*	*clefC3	*
1r	.	8r	.
.	.	8d dd	Ba-
.	.	16d dd	-ba-
.	.	16d dd	-ba-
.	.	8d dd	-ba
.	.	8r	,
.	.	8d dd	ba-
.	.	16d dd	-ba-
.	.	16d dd	-ba-
.	.	8d dd	-ba!
=71	=71	=71	=71
dq	_	1r	.
8e	Ba-	.	.
8e	-by!	.	.
dq	_	.	.
8e	(Ba-	.	.
8e	-by,	.	.
dq	_	.	.
8e	ba-	.	.
8e	-by,	.	.
dq	_	.	.
8e	ba-	.	.
8e	-by)	.	.
=72	=72	=72	=72
4r	.	4r	.
8d	Love	8f#	Love
8B	is	8d	is
8d	stron-	8f#	stron-
8B	-ger	8d	-ger
4d	than	4f#	than
=73	=73	=73	=73
dq	_	f#q	_
8e	thun-	8g#	thun-
8e	-der!	8g#	-der
dq	_	4r	!
8e	(Thun-	.	.
8e	-der,	.	.
dq	_	2r	.
8e	thun-	.	.
8e	-der,	.	.
dq	_	.	.
8e	thun-	.	.
8e	-der)	.	.
=74	=74	=74	=74
1r	.	8r	.
.	.	8d dd	Ba-
.	.	16d dd	-ba-
.	.	16d dd	-ba-
.	.	8d dd	-ba
.	.	8r	,
.	.	8d dd	ba-
.	.	16d dd	-ba-
.	.	16d dd	-ba-
.	.	8d dd	-ba!
=75	=75	=75	=75
dq	_	f#q	_
8e	Ba-	8g#	Ba-
8e	-by!	8g#	-by
dq	_	4r	!
8e	(Ba-	.	.
8e	-by,	.	.
dq	_	2r	.
8e	ba-	.	.
8e	-by,	.	.
dq	_	.	.
8e	ba-	.	.
8e	-by)	.	.
=76	=76	=76	=76
4r	.	1r	.
8d	Don't	.	.
8B	for-	.	.
8d	-get	.	.
8r	.	.	.
eq	_	.	.
4f#	my	.	.
=77	=77	=77	=77
dq	_	8g#	Num-
8e	num-	.	.
8e	-ber!	8g#	-ber
dq	_	4r	!
8e	(Num-	.	.
8e	-ber,	.	.
dq	_	2r	.
8e	num-	.	.
8e	-ber,	.	.
dq	_	.	.
8e	num-	.	.
8e	-ber)	.	.
=78	=78	=78	=78
4r	.	4r	.
8d	Love	8f#	Love
8B	will	8d	will
4d	see	4f#	see
eq	_	g#q	_
4f#	you	4a	you
=79	=79	=79	=79
4.e	through	4.g#	through
8r	!	8r	!
2r	.	2r	.
=80	=80	=80	=80
g#q	_	G#q	_
r	.	r	.
4g#	I've	4G#	I've
8r	.	8r	.
8e	been	8E	been
8f#	sear-	8F#	sear-
4f#	-ching	4F#	-ching
[8e	high	[8E	high
=81	=81	=81	=81
8e]	_	8E]	_
8r	.	8r	.
4r	.	4r	.
2r	.	2r	.
=82	=82	=82	=82
g#q	_	G#q	_
r	.	r	.
4g#	I've	4G#	I've
8r	.	8r	.
8e	been	8E	been
8f#	sear-	8F#	sear-
4f#	-ching	4F#	-ching
[8e	low	[8E	low
=83	=83	=83	=83
8e]	_	8E]	_
8r	.	8r	.
4r	.	4r	.
2r	.	2r	.
=84	=84	=84	=84
4r	.	1r	.
8r	.	.	.
16d	Wan-	.	.
16c#	-na	.	.
8d	spend	.	.
8d	my	.	.
8e	_	.	.
[8e	life	.	.
=85	=85	=85	=85
4e]	_	2r	.
4r	,	.	.
4r	.	4r	.
8f#	with	8F#	With
[8e [b	you	8E	you!
=86	=86	=86	=86
1e] b]	_	1r	.
=87	=87	=87	=87
*	*	*clefF4	*
4r	!	4r	!
8r	.	8r	.
16B	Ba-	16BB	Ba-
16B	-ba-	16BB	-ba-
8B	-ba-	8BB	-ba-
4e	-ba-	4E	-ba-
16f#	-ba	16F#	-ba
[16g#	_	[16G#	_
=88	=88	=88	=88
8g#]	!	8G#]	!
4r	.	4r	.
16g#	Ba-	16G#	Ba-
16g#	-ba-	16G#	-ba-
8f#	-ba-	8F#	-ba-
4g#	-ba-	4G#	-ba-
[8f#	-ba	[8F#	-ba
=89	=89	=89	=89
8f#]	_	8F#]	_
4e	ba,	4E	ba,
16B	ba-	16BB	ba-
16B	-ba-	16BB	-ba-
8B	-ba-	8BB	-ba-
4e	-ba-	4E	-ba-
16f#	-ba	16F#	-ba
[16g#	_	[16G#	_
=90	=90	=90	=90
8g#]	!	8G#]	!
8r	.	8r	.
8g#	Love	4r	.
8g#	will	.	.
8f#	see	2r	.
4g#	you	.	.
[8e	through	.	.
=91	=91	=91	=91
*	*	*clefC3	*
4.e]	_	1r	.
8r	!	.	.
2r	.	.	.
=92	=92	=92	=92
*M2/4	*	*M2/4	*
2r	.	2r	.
=93	=93	=93	=93
*M4/4	*	*M4/4	*
2r	.	1r	.
4r	.	.	.
8r	.	.	.
16e	Ba-	.	.
16B	-by,	.	.
=94	=94	=94	=94
8f#	call	1r	.
16B	my	.	.
[16d#	line	.	.
16d#]	,	.	.
16e	ba-	.	.
16e	-ba-	.	.
16c#	-by	.	.
8f#	call	.	.
16B	my	.	.
[16d#	line	.	.
4d#]	!	.	.
=95	=95	=95	=95
2r	.	1r	.
4r	.	.	.
8r	.	.	.
16c#	Call	.	.
16e	me	.	.
=96	=96	=96	=96
16f#	a-	1r	.
8B	-ny-	.	.
[16B	-time	.	.
8B]	,,	.	.
16e	call	.	.
16e	me	.	.
16f#	a-	.	.
8B	-ny-	.	.
[16B	-time	.	.
4B]	!	.	.
=97	=97	=97	=97
dq dd	_	f#q	_
8e ee	Ba-	8g#	Ba-
8e ee	-by!	8g#	-by!
dq	_	4r	.
8e	(Ba-	.	.
8e	-by,	.	.
dq	_	2r	.
8e	ba-	.	.
8e	-by,	.	.
dq	_	.	.
8e	ba-	.	.
8e	-by)	.	.
=98	=98	=98	=98
*	*	*clefG2	*
4r	.	4r	.
8d dd	Don't	8f#	Don't
8B b	for-	8d	for-
8d dd	-get	8f#	-get
8r	.	8r	!
eq ee	_	4r	.
4f# ff#	my	.	.
=99	=99	=99	=99
dq dd	_	8g#	Num-
8e ee	num-	.	.
8e ee	-ber!	8g#	-ber
dq	_	4r	!
8e	(Num-	.	.
8e	-ber,	.	.
dq	_	2r	.
8e	num-	.	.
8e	-ber,	.	.
dq	_	.	.
8e	num-	.	.
8e	-ber)	.	.
=100	=100	=100	=100
4r	.	4r	.
8d dd	Love	8f#	Love
8B b	will	8d	will
4d dd	see	4f#	see
eq ee	_	g#q	_
4f# ff#	you	4a	you
=101	=101	=101	=101
4e ee	through	4g#	through
4r	!	4r	!
2r	.	2r	.
*-	*-	*-	*-
!!!ENC: Nathaniel Condit-Schultz